!!!COM: Vivaldi, Antonio Lucio
!!!CDT: 1678/03/04-1741/08/28
!!!OPR: 12 Sonatas for Violin and Basso continuo
!!!OTL: Sonata in E minor, op. @{OPS}, no. @{ONM} (@{SCT})
!!!OPS: 2
!!!ONM: 9
!!!OMV: 4. Gavotta
!!!SCT: RV 16
!!!SCA: Antonio Vivaldi: Thematisch-systematisches Verzeichnis seiner Werke (Ryom-Verzeichnis)
!!!OMD: Presto
!!!key: e
**kern	**fb	**kern
*part2	*	*part1
*staff2	*	*staff1
*ICklav	*	*ICstr
*Icemba	*	*Ivioln
*I"Basso continuo	*	*I"Violino
*I'bc	*	*I'v
*>[A,A,B,B]	*>[A,A,B,B]	*>[A,A,B,B]
*>norep[A,B]	*>norep[A,B]	*>norep[A,B]
*>A	*>A	*>A
*clefF4	*	*clefG2
*k[f#]	*	*k[f#]
*e:	*	*e:
*M2/2	*	*M2/2
*met(c)	*	*met(c)
*MM184	*	*MM184
=1	=1	=1
4E\	.	8ee\L
.	.	8b\
8r	.	8b\
8e\	.	8ee\J
=2	=2	=2
4d#X\	6	8ff#y\L
.	.	8b\
4B\	#	8b\
.	.	8ff#y\J
=3	=3	=3
4e\	.	8gg\L
.	.	8b\
8r	.	8b\
8E\	.	8gg\J
=4	=4	=4
4D#X\	6	8ff#y\L
.	.	8b\
4BB/	#	8b\
.	.	8ff#y\J
=5	=5	=5
4E\	.	8gg\L
.	.	8b\
8r	.	8b\
8e\	.	8gg\J
=6	=6	=6
8dn\L	6	8ff#y\L
8c#X\	.	8aa#X\
8d\	.	8bb\
8B\J	.	8dd\J
=7	=7	=7
8e\L	6#/ 5	8cc#X\L
8c#X\	.	8bb\
8f#y\	#	8cc#y\
8F#y\J	.	8aa#X\J
=8	=8	=8
8B\L	.	2b\
8A\	.	.
8G\	.	.
8F#y\J	.	.
=9:|!|:	=9:|!|:	=9:|!|:
*>B	*>B	*>B
4E\	.	8ee\L
.	.	8b\
4G#X\	6	8b\
.	.	8ee\J
=10	=10	=10
4A\	#	8cc#X\L
.	.	8a\
4r	.	8a\
.	.	8cc#y\J
!!LO:LB:g=original
=11	=11	=11
4A#X\	6	8ff#y\L
.	.	8cc#X\
4F#y\	#	8cc#y\
.	.	8ff#y\J
=12	=12	=12
4B\	#	8dd#X\L
.	.	8b\
4r	.	8b\
.	.	8ff#y\J
=13	=13	=13
4E\	.	(8gg\L
.	.	8aa\
4G\	6	8bb\)
.	.	8ee\J
=14	=14	=14
4AA/	6nr	(8ffn\L
.	.	8gg\
4C/	6	8aa\)
.	.	8ee\J
=15	=15	=15
4.BB/	#	(8dd#X\L
.	.	8cc#X\
.	.	8b\)
8AA/	4#| 2	8dd#y\J
=16	=16	=16
4GG/	6	8ee\L
.	.	8b\
8r	.	8b\
8e\	.	8ee\J
=17	=17	=17
4d#X\	6	8ff#y\L
.	.	8b\
4B\	#	8b\
.	.	8ff#y\J
=18	=18	=18
4e\	.	8gg\L
.	.	8b\
8r	.	8b\
8E\	.	8gg\J
=19	=19	=19
4D#X\	6	8ff#y\L
.	.	8b\
4BB/	#	8b\
.	.	8ff#y\J
=20	=20	=20
4E\	.	8gg\L
.	.	8b\
8r	.	8b\
8E\	.	8gg\J
=21	=21	=21
8A\L	6nr	(8ffn\L
8B\	.	8dd#X\)
8c\	.	8ee\
8A\J	.	8aa\J
=22	=22	=22
8B\L	6 4	4gg\
8A\	.	.
8B\	5 #	4ff#y\t
8BB\J	.	.
=23	=23	=23
2EE/;	.	2ee\;
=:|!	=:|!	=:|!
*-	*-	*-
!!!SMS: RV 16 / Estienne Roger, Amsterdam [facs.]
!!!ENC: Fran Bennion; rev. 04/21 E. Correia
!!!END: 2004/12/15
!!!ONB: Converted from MuseData with musedata2hum on Sat May 11 12:07:53 2024
!!!YEM: (C) 2004, 2004 Center for Computer Assisted Research in the Humanities.
!!!system-decoration: [(s1,s2)]
!!!URL-info: https://wiki.ccarh.org/wiki/MuseData:_Antonio_Vivaldi#Op._2:_Sonate_a_violino_e_basso_per_il_cembalo
!!!URL-pdf: https://pdf.musedata.org/vivaldi-op02-no09.pdf#page=1 MuseData edition
!!!URL-pdf: http://conquest.imslp.info/files/imglnks/usimg/b/b7/IMSLP99075-PMLP183164-Vivaldi_-_Sonatas_Op2.pdf#page=35 Estienne Roger Amsterdam: Estienne Roger, No.2, n.d.[1711].
!!!URL-youtube: https://www.youtube.com/watch?v=SiijZmW9jKM&t=3745s L'Arte dell'Arco
!!!title: @{OTL}, mov. @{OMV}
!!!filter-chint: chint -mid
!!!EEV: 2024/05/11
!!!source-file: https://bitbucket.org/musedata/vivaldi/src/master/roger/op2/no09/stage2/04/01
!!!source-file: https://bitbucket.org/musedata/vivaldi/src/master/roger/op2/no09/stage2/04/02
